X:70
T:Isle of Aigas, The
T:Eilean Aigeis
R:Air
S:Simon Fraser Collection
N:No.214
O:Scottish
M:3/4
L:1/8
K:C Minor
c>d|e2c2G2|G3z G>F|E2G2 [=B,2D2]|C3z B,>B,|[C4F4] [F2A2]|
[=E6G6]|[E2c2] z2 c>d|e2c2G2|G3z E>F|G2c2e2|[=B3d3]z e>d|
c2G2E2|[C4F4]E2|[=B,6D6]|C2 z2||G>G|c2d2e2|[=B3d3] z c>c|
g2f2 [=B2d2]|c3z G>G|c2d2e2|[=B4d4] c2|(G6|c2) z2 C>D|
E2F2G2|G3z G>G|c2d2e2|[=B3d3]z e>d|c2G2E2|[C4F4] E2|
[=B,6D6]|C2 z2||

